assets/img/icons/duotone-icons/Code/Spy.svg

<?xml version="1.0" encoding="UTF-8"?>
<svg width="24px" height="24px" viewBox="0 0 24 24" version="1.1" xmlns="http://www.w3.org/2000/svg" xmlns:xlink="http://www.w3.org/1999/xlink">
    <!-- Generator: Sketch 52.2 (67145) - http://www.bohemiancoding.com/sketch -->
    <title>Stockholm-icons / Code / Spy</title>
    <desc>Created with Sketch.</desc>
    <g id="Stockholm-icons-/-Code-/-Spy" stroke="none" stroke-width="1" fill="none" fill-rule="evenodd">
        <rect id="bound" x="0" y="0" width="24" height="24"></rect>
        <path d="M12,3 C16.418278,3 20,6.581722 20,11 L20,21 C20,21.5522847 19.5522847,22 19,22 L5,22 C4.44771525,22 4,21.5522847 4,21 L4,11 C4,6.581722 7.581722,3 12,3 Z M9,10 C7.34314575,10 6,11.3431458 6,13 C6,14.6568542 7.34314575,16 9,16 L15,16 C16.6568542,16 18,14.6568542 18,13 C18,11.3431458 16.6568542,10 15,10 L9,10 Z" id="Combined-Shape" fill="#335EEA"></path>
        <path d="M15,14 C14.4477153,14 14,13.5522847 14,13 C14,12.4477153 14.4477153,12 15,12 C15.5522847,12 16,12.4477153 16,13 C16,13.5522847 15.5522847,14 15,14 Z M9,14 C8.44771525,14 8,13.5522847 8,13 C8,12.4477153 8.44771525,12 9,12 C9.55228475,12 10,12.4477153 10,13 C10,13.5522847 9.55228475,14 9,14 Z" id="Combined-Shape" fill="#335EEA" opacity="0.3"></path>
    </g>
</svg>

<svg width="24" height="24" viewBox="0 0 24 24" xmlns="http://www.w3.org/2000/svg"><g fill="none" fill-rule="evenodd"><path d="M0 0h24v24H0z"/><path d="M12 3a8 8 0 018 8v10a1 1 0 01-1 1H5a1 1 0 01-1-1V11a8 8 0 018-8zm-3 7a3 3 0 000 6h6a3 3 0 000-6H9z" fill="#335EEA"/><path d="M15 14a1 1 0 110-2 1 1 0 010 2zm-6 0a1 1 0 110-2 1 1 0 010 2z" fill="#335EEA" opacity=".3"/></g></svg>
